src/main/frontend/src/assets/logo-neomind-large.svg

<svg width="170" height="32" viewBox="0 0 170 32" fill="none" xmlns="http://www.w3.org/2000/svg">
<g clip-path="url(#clip0_2_45)">
<path d="M26.853 31.44C25.8153 31.3757 24.8292 30.9647 24.053 30.273L1.182 7.168C0.48138 6.39749 0.0693468 5.40805 0.0159999 4.368V1.661C0.0178362 1.22262 0.192591 0.802675 0.502294 0.492411C0.811997 0.182146 1.23162 0.00663067 1.67 0.004H3.305C4.33592 0.0681411 5.31473 0.479478 6.082 1.171L22.722 18.162C23.352 18.815 23.867 18.582 23.867 17.694V8.29C23.867 7.38 23.399 6.633 22.816 6.633C21.9771 6.49315 21.2068 6.08342 20.622 5.466L16.374 1.166C15.744 0.537 15.955 0 16.84 0H29.508C29.9469 0.00184247 30.3673 0.17701 30.6776 0.48736C30.988 0.797709 31.1632 1.2181 31.165 1.657V29.78C31.1632 30.2189 30.988 30.6393 30.6776 30.9496C30.3673 31.26 29.9469 31.4352 29.508 31.437L26.853 31.44ZM1.67 31.44C1.23128 31.4379 0.811138 31.2626 0.501005 30.9523C0.190871 30.642 0.0158405 30.2217 0.0139999 29.783V21.685C0.0139999 20.775 0.527 20.564 1.18 21.195L10.259 30.273C10.912 30.903 10.679 31.44 9.769 31.44H1.67ZM64.707 15.709C64.707 10.481 67.367 7.891 72.689 7.891C77.989 7.891 80.181 11.091 79.223 17.461H68.743C68.743 19.608 70.493 20.706 74.018 20.706C75.6469 20.7004 77.2719 20.544 78.872 20.239V23.439C77.0723 23.7798 75.2424 23.9356 73.411 23.904C67.6003 23.902 64.6977 21.1703 64.703 15.709H64.707ZM68.885 14.262H75.56C75.7 11.975 74.626 10.807 72.36 10.807C70.238 10.808 69.072 11.979 68.885 14.262ZM136.217 7.862H139.367L139.881 9.916C141.59 8.63896 143.652 7.92185 145.785 7.863C149.495 7.863 151.363 9.845 151.363 13.813V23.848H147.279V13.767C147.33 13.4057 147.297 13.0374 147.182 12.6912C147.066 12.345 146.872 12.0305 146.614 11.7724C146.356 11.5144 146.041 11.3199 145.695 11.2044C145.349 11.0889 144.98 11.0556 144.619 11.107C142.972 11.2043 141.426 11.9312 140.301 13.137V23.85H136.218V7.864L136.217 7.862ZM128.351 23.872V7.862H132.435V23.878L128.351 23.872ZM120.485 23.872V13.791C120.485 12.017 119.715 11.131 118.199 11.131C117.454 11.2039 116.732 11.4252 116.074 11.7819C115.417 12.1387 114.837 12.6236 114.37 13.208V23.878H110.59V13.843C110.59 12.023 109.843 11.136 108.326 11.136C107.574 11.1912 106.842 11.4048 106.179 11.7628C105.515 12.1207 104.935 12.6149 104.476 13.213V23.878H100.415V7.868H103.542L104.01 9.875C105.565 8.63279 107.481 7.92885 109.47 7.869C110.32 7.79655 111.173 7.96357 111.933 8.35116C112.693 8.73875 113.33 9.3314 113.77 10.062C115.405 8.74552 117.414 7.97813 119.51 7.869C122.895 7.869 124.576 9.899 124.576 13.959V23.879L120.485 23.872ZM46.877 7.862H50.027L50.541 9.916C52.2504 8.63894 54.313 7.92184 56.446 7.863C60.157 7.863 62.024 9.845 62.024 13.813V23.848H57.939V13.767C57.9902 13.4057 57.9567 13.0375 57.8412 12.6914C57.7256 12.3454 57.5311 12.0309 57.2731 11.7729C57.0151 11.5149 56.7006 11.3204 56.3546 11.2048C56.0085 11.0893 55.6403 11.0558 55.279 11.107C53.6324 11.2041 52.0863 11.931 50.961 13.137V23.85H46.878V7.864L46.877 7.862ZM154.279 15.518C154.279 10.383 156.894 7.838 162.098 7.838C163.405 7.82025 164.701 8.08352 165.898 8.61V2.028H169.986V22.892H169.962C167.499 23.5243 164.967 23.8458 162.425 23.849C157.01 23.854 154.28 21.079 154.28 15.524L154.279 15.518ZM158.387 15.378C158.387 18.714 159.647 20.396 162.144 20.396C163.422 20.4226 164.695 20.2169 165.9 19.789V11.98C164.736 11.3973 163.445 11.1163 162.144 11.163C159.625 11.158 158.388 12.559 158.388 15.38L158.387 15.378ZM81.767 15.518C81.7659 14.4482 81.9759 13.3886 82.3848 12.4C82.7937 11.4114 83.3935 10.5132 84.1499 9.75662C84.9064 9.00009 85.8046 8.40016 86.7931 7.99115C87.7817 7.58213 88.8412 7.37208 89.911 7.373C92.0695 7.37881 94.1379 8.23877 95.6643 9.76497C97.1907 11.2912 98.0509 13.3595 98.057 15.518C98.0578 16.5878 97.8476 17.6473 97.4385 18.6358C97.0293 19.6243 96.4293 20.5224 95.6727 21.2788C94.916 22.0351 94.0177 22.6349 93.029 23.0436C92.0404 23.4524 90.9808 23.6622 89.911 23.661C88.8419 23.6618 87.7832 23.4519 86.7953 23.0433C85.8073 22.6348 84.9096 22.0355 84.1534 21.2799C83.3972 20.5242 82.7973 19.6269 82.388 18.6393C81.9787 17.6517 81.768 16.5931 81.768 15.524L81.767 15.518ZM85.384 15.518C85.3853 16.718 85.8626 17.8684 86.7111 18.7169C87.5596 19.5654 88.71 20.0427 89.91 20.044C91.1105 20.0435 92.2617 19.5666 93.1108 18.718C93.96 17.8694 94.4377 16.7185 94.439 15.518C94.4382 14.3172 93.9608 13.1658 93.1115 12.3167C92.2623 11.4677 91.1108 10.9905 89.91 10.99C88.7088 10.9916 87.5574 11.4701 86.7089 12.3203C85.8604 13.1705 85.3842 14.3228 85.385 15.524L85.384 15.518ZM128.377 3.638C128.378 3.09977 128.592 2.58374 128.972 2.20316C129.353 1.82257 129.869 1.60853 130.407 1.608C130.945 1.608 131.462 1.82187 131.842 2.20257C132.223 2.58327 132.437 3.09961 132.437 3.638C132.437 4.17639 132.223 4.69273 131.842 5.07343C131.462 5.45413 130.945 5.668 130.407 5.668C129.869 5.668 129.353 5.45474 128.972 5.07496C128.591 4.69519 128.377 4.17988 128.375 3.642L128.377 3.638Z" fill="white"/>
</g>
<defs>
<clipPath id="clip0_2_45">
<rect width="170" height="31.44" fill="white"/>
</clipPath>
</defs>
</svg>

<?xml version="1.0" encoding="UTF-8"?> <svg xmlns="http://www.w3.org/2000/svg" width="170" height="31.44"><path d="M26.853 31.44a4.64 4.64 0 01-2.8-1.167L1.182 7.168a4.505 4.505 0 01-1.166-2.8V1.661A1.664 1.664 0 011.67.004h1.635a4.572 4.572 0 012.777 1.167l16.64 16.991c.63.653 1.145.42 1.145-.468V8.29c0-.91-.468-1.657-1.051-1.657a3.907 3.907 0 01-2.194-1.167l-4.248-4.3C15.744.537 15.955 0 16.84 0h12.668a1.664 1.664 0 011.657 1.657V29.78a1.664 1.664 0 01-1.657 1.657zm-25.183 0a1.664 1.664 0 01-1.656-1.657v-8.098c0-.91.513-1.121 1.166-.49l9.079 9.078c.653.63.42 1.167-.49 1.167zm63.037-15.731c0-5.228 2.66-7.818 7.982-7.818 5.3 0 7.492 3.2 6.534 9.57h-10.48c0 2.147 1.75 3.245 5.275 3.245a26.41 26.41 0 004.854-.467v3.2a26.863 26.863 0 01-5.461.465q-8.716-.003-8.708-8.195zm4.178-1.447h6.675c.14-2.287-.934-3.455-3.2-3.455-2.122.001-3.288 1.173-3.475 3.456zm67.332-6.4h3.15l.514 2.054a10.34 10.34 0 015.904-2.053c3.71 0 5.578 1.982 5.578 5.95v10.035h-4.084V13.767a2.352 2.352 0 00-2.66-2.66 6.425 6.425 0 00-4.318 2.03V23.85h-4.083V7.864zm-7.866 16.01V7.862h4.084v16.016zm-7.866 0V13.791c0-1.774-.77-2.66-2.286-2.66a5.6 5.6 0 00-3.829 2.077v10.67h-3.78V13.843c0-1.82-.747-2.707-2.264-2.707a5.347 5.347 0 00-3.85 2.077v10.665h-4.061V7.868h3.127l.468 2.007a9.19 9.19 0 015.46-2.006 4.568 4.568 0 014.3 2.193 9.98 9.98 0 015.74-2.193c3.385 0 5.066 2.03 5.066 6.09v9.92zM46.877 7.862h3.15l.514 2.054a10.343 10.343 0 015.905-2.053c3.711 0 5.578 1.982 5.578 5.95v10.035h-4.085V13.767a2.353 2.353 0 00-2.66-2.66 6.423 6.423 0 00-4.318 2.03V23.85h-4.083V7.864zm107.402 7.656c0-5.135 2.615-7.68 7.819-7.68a9.129 9.129 0 013.8.772V2.028h4.088v20.864h-.024a30.458 30.458 0 01-7.537.957c-5.415.005-8.145-2.77-8.145-8.325zm4.108-.14c0 3.336 1.26 5.018 3.757 5.018a10.568 10.568 0 003.756-.607V11.98a7.767 7.767 0 00-3.756-.817c-2.519-.005-3.756 1.396-3.756 4.217zm-76.62.14a8.137 8.137 0 018.144-8.145 8.168 8.168 0 018.146 8.145 8.137 8.137 0 01-8.146 8.143 8.137 8.137 0 01-8.143-8.137zm3.617 0a4.531 4.531 0 004.526 4.526 4.531 4.531 0 004.529-4.526 4.531 4.531 0 00-4.529-4.528 4.531 4.531 0 00-4.525 4.534zm42.993-11.88a2.032 2.032 0 012.03-2.03 2.03 2.03 0 012.03 2.03 2.03 2.03 0 01-2.03 2.03 2.032 2.032 0 01-2.032-2.026z"></path></svg>
